icons/Color/scalable/gimp-tool-unified-transform.svg

<svg height="16" viewBox="0 0 16 16" width="16" xmlns="http://www.w3.org/2000/svg"><path d="m0 0h16v16h-16z" fill="none"/><path d="m0 0h16v6h-16z" fill="#3465a4"/><path d="m1.500829 1.500829h13.03173v3.131896h-13.03173z" style="opacity:.5;fill:#d3d7cf;stroke:#d3d7cf;stroke-width:.931481;stroke-linecap:square;stroke-linejoin:round;stroke-miterlimit:0"/><path d="m2 2h12v2h-12z" fill="#729fcf"/><path d="m-16 7h6l9 6h-15z" fill="#204a87" transform="rotate(-90)"/><path d="m8.5 14.5v-4l3-4.03125v8.03125z" fill="none"/><g fill-rule="evenodd" stroke-linejoin="round"><path d="m1.2532205 8.2532203v3.3497587.02522l2.165506-.01082-.016674 1.129428 2.3447492-1.457268-2.305149-1.789539-.010423 1.0036-.9399839-.0072v-2.2431797z" fill="#fff" stroke="#204a87" stroke-width=".506441"/><path d="m8 15.036678v-4.606867l4.051181-6.1740291-.128317 10.7603581z" style="fill:#3465a4;stroke:#fff;stroke-width:.772644;stroke-linecap:square;stroke-miterlimit:0;stroke-opacity:.2"/></g></svg>

<?xml version="1.0" encoding="UTF-8" standalone="no"?>
<!-- Created with Inkscape (http://www.inkscape.org/) -->

<svg
   xmlns:dc="http://purl.org/dc/elements/1.1/"
   xmlns:cc="http://creativecommons.org/ns#"
   xmlns:rdf="http://www.w3.org/1999/02/22-rdf-syntax-ns#"
   xmlns:svg="http://www.w3.org/2000/svg"
   xmlns="http://www.w3.org/2000/svg"
   xmlns:sodipodi="http://sodipodi.sourceforge.net/DTD/sodipodi-0.dtd"
   xmlns:inkscape="http://www.inkscape.org/namespaces/inkscape"
   inkscape:export-ydpi="90.000000"
   inkscape:export-xdpi="90.000000"
   inkscape:export-filename="/home/jimmac/src/cvs/gnome/gimp/themes/Default/images/stock-layers-16.png"
   width="16"
   height="16"
   id="svg11300"
   sodipodi:version="0.32"
   inkscape:version="0.91+devel r"
   sodipodi:docname="gimp-tool-unified-transform.svg"
   version="1.0"
   viewBox="0 0 16 16">
  <sodipodi:namedview
     inkscape:cy="7.9439242"
     inkscape:cx="11.150414"
     inkscape:zoom="32"
     inkscape:window-height="1016"
     inkscape:window-width="1920"
     inkscape:pageshadow="2"
     inkscape:pageopacity="0.0"
     borderopacity="0.17254902"
     bordercolor="#666"
     pagecolor="#ffffff"
     id="base"
     inkscape:showpageshadow="false"
     showborder="true"
     inkscape:window-x="0"
     inkscape:window-y="27"
     inkscape:current-layer="layer1"
     width="16px"
     height="16px"
     showgrid="true"
     inkscape:window-maximized="1"
     inkscape:document-units="px"
     showguides="false"
     inkscape:snap-global="false">
    <inkscape:grid
       type="xygrid"
       id="grid4443" />
  </sodipodi:namedview>
  <defs
     id="defs3" />
  <sodipodi:namedview
     stroke="#ef2929"
     fill="#eeeeec"
     pagecolor="#ffffff"
     bordercolor="#666666"
     borderopacity="0.25490196"
     inkscape:pageopacity="0.0"
     inkscape:pageshadow="2"
     inkscape:zoom="1"
     inkscape:cx="-14.198652"
     inkscape:cy="-5.1663457"
     inkscape:current-layer="layer1"
     showgrid="false"
     inkscape:grid-bbox="true"
     inkscape:document-units="px"
     inkscape:showpageshadow="false"
     inkscape:window-width="872"
     inkscape:window-height="659"
     inkscape:window-x="403"
     inkscape:window-y="296"
     id="namedview73" />
  <metadata
     id="metadata4">
    <rdf:RDF>
      <cc:Work
         rdf:about="">
        <dc:format>image/svg+xml</dc:format>
        <dc:type
           rdf:resource="http://purl.org/dc/dcmitype/StillImage" />
        <dc:creator>
          <cc:Agent>
            <dc:title />
          </cc:Agent>
        </dc:creator>
        <dc:source />
        <cc:license
           rdf:resource="http://creativecommons.org/licenses/by-sa/2.0/" />
        <dc:title />
      </cc:Work>
      <cc:License
         rdf:about="http://creativecommons.org/licenses/by-sa/2.0/">
        <cc:permits
           rdf:resource="http://web.resource.org/cc/Reproduction" />
        <cc:permits
           rdf:resource="http://web.resource.org/cc/Distribution" />
        <cc:requires
           rdf:resource="http://web.resource.org/cc/Notice" />
        <cc:requires
           rdf:resource="http://web.resource.org/cc/Attribution" />
        <cc:permits
           rdf:resource="http://web.resource.org/cc/DerivativeWorks" />
        <cc:requires
           rdf:resource="http://web.resource.org/cc/ShareAlike" />
      </cc:License>
    </rdf:RDF>
  </metadata>
  <g
     id="layer1"
     inkscape:label="Layer 1"
     inkscape:groupmode="layer">
    <g
       id="g4272">
      <g
         id="g3959">
        <rect
           style="display:inline;opacity:1;fill:none;fill-opacity:1;fill-rule:nonzero;stroke:none;stroke-width:0.2;stroke-miterlimit:4;stroke-dasharray:none;stroke-opacity:1"
           id="rect6639-3"
           width="16"
           height="16"
           x="0"
           y="0"
           inkscape:transform-center-x="-94.752306"
           inkscape:transform-center-y="52.3259" />
        <rect
           style="opacity:1;fill:#3465a4;fill-opacity:1;stroke:none;stroke-width:1.21959507;stroke-linecap:square;stroke-linejoin:round;stroke-miterlimit:0;stroke-dasharray:none;stroke-opacity:1;paint-order:stroke fill markers"
           id="rect4026"
           width="16"
           height="6"
           x="0"
           y="0" />
        <rect
           style="opacity:0.5;fill:#d3d7cf;fill-opacity:1;stroke:#d3d7cf;stroke-width:0.93148112;stroke-linecap:square;stroke-linejoin:round;stroke-miterlimit:0;stroke-dasharray:none;stroke-opacity:1;paint-order:stroke fill markers"
           id="rect4026-3"
           width="13.03173"
           height="3.131896"
           x="1.5008292"
           y="1.5008292" />
        <rect
           style="opacity:0.99999999;fill:#729fcf;fill-opacity:1;stroke:none;stroke-width:0.60979754;stroke-linecap:square;stroke-linejoin:round;stroke-miterlimit:0;stroke-dasharray:none;stroke-opacity:1;paint-order:stroke fill markers"
           id="rect4026-3-2"
           width="12"
           height="2"
           x="2"
           y="2" />
        <path
           transform="rotate(-90)"
           style="opacity:1;fill:#204a87;fill-opacity:1;stroke:none;stroke-width:1.18086791;stroke-linecap:square;stroke-linejoin:round;stroke-miterlimit:0;stroke-dasharray:none;stroke-opacity:1;paint-order:stroke fill markers"
           d="m -16,7 6,0 9,6 h -15 z"
           id="rect4026-8"
           inkscape:connector-curvature="0"
           sodipodi:nodetypes="ccccc" />
        <path
           style="opacity:1;fill:url(#linearGradient4245);fill-opacity:1;stroke:none;stroke-width:0.70313269;stroke-linecap:square;stroke-linejoin:round;stroke-miterlimit:0;stroke-dasharray:none;stroke-opacity:1;paint-order:stroke fill markers"
           d="m 8.5,14.5 v -4 l 3,-4.03125 0,8.03125 z"
           id="rect4026-8-5-6"
           inkscape:connector-curvature="0"
           sodipodi:nodetypes="ccccc" />
        <path
           style="color:#000000;font-style:normal;font-variant:normal;font-weight:normal;font-stretch:normal;font-size:medium;line-height:normal;font-family:sans-serif;font-variant-ligatures:normal;font-variant-position:normal;font-variant-caps:normal;font-variant-numeric:normal;font-variant-alternates:normal;font-feature-settings:normal;text-indent:0;text-align:start;text-decoration:none;text-decoration-line:none;text-decoration-style:solid;text-decoration-color:#000000;letter-spacing:normal;word-spacing:normal;text-transform:none;writing-mode:lr-tb;direction:ltr;text-orientation:mixed;dominant-baseline:auto;baseline-shift:baseline;text-anchor:start;white-space:normal;shape-padding:0;clip-rule:nonzero;display:inline;overflow:visible;visibility:visible;opacity:1;isolation:auto;mix-blend-mode:normal;color-interpolation:sRGB;color-interpolation-filters:linearRGB;solid-color:#000000;solid-opacity:1;fill:#ffffff;fill-opacity:1;fill-rule:evenodd;stroke:#204a87;stroke-width:0.506441;stroke-linecap:butt;stroke-linejoin:round;stroke-miterlimit:4;stroke-dasharray:none;stroke-dashoffset:0;stroke-opacity:1;color-rendering:auto;image-rendering:auto;shape-rendering:auto;text-rendering:auto;enable-background:accumulate"
           d="m 1.2532205,8.2532203 v 3.3497587 0.02522 l 2.165506,-0.01082 -0.016674,1.129428 L 5.7468017,11.289539 3.4416527,9.5 3.4312297,10.5036 2.4912458,10.4964 V 8.2532203 Z"
           id="path4134"
           inkscape:connector-curvature="0"
           sodipodi:nodetypes="ccccccccccc" />
      </g>
      <path
         sodipodi:nodetypes="ccccc"
         inkscape:connector-curvature="0"
         id="rect8483-2"
         d="M 8,15.036678 V 10.429811 L 12.051181,4.2557819 11.922864,15.01614 Z"
         style="display:inline;overflow:visible;visibility:visible;opacity:1;fill:#3465a4;fill-opacity:1;fill-rule:evenodd;stroke:#ffffff;stroke-width:0.77264404;stroke-linecap:square;stroke-linejoin:round;stroke-miterlimit:0;stroke-dasharray:none;stroke-dashoffset:0;stroke-opacity:0.2;marker:none;marker-start:none;marker-mid:none;marker-end:none;enable-background:accumulate" />
    </g>
  </g>
</svg>
